X: 141
M:2/4
L:1/16
K:G
vD>B,|G,>B,D>G B>GD>B,|C>EA>B c>BA>c|B>dg>d "4"e>cA>G|(3FG"4"A (3GFE (3DED (3CB,G,|
|:(uBc)|d>(g{ag}fg) e>(g{ag}fg)|b>ga>f g>ed>B|(3cd"4"e (3ABc (3Bcd (G>B)|((3"4"AGF) ((3"4"AGE) .D2(Bc)|
d>(g{ag}fg) e>(g{ag}fg)|b>ga>f g>ed>B|c>de>f {a}g>fg>e|d>Bc>a G2:|


